dist/icons/community.svg

<svg xmlns="http://www.w3.org/2000/svg" width="100" height="100"><circle fill="#B2B2B2" cx="50" cy="50" r="50"/><path d="M74.924 18.153c.615-1.539-.308-2-.308-2l-45.848 7.231c-1.23.769-.307 1.692-.307 1.692l-9.847 54.463 1.846.154 8.77-50.771 8.154 45.848 1.539-.155-8.923-49.847 6-1.077c-.154.616.615 2.462.615 2.462l1.231 27.693-.615 6 11.385-.309 1.692-1.076-.923-5.386-1.846-31.075 5.692-.615c-.308.769.615 2.769.615 2.769l.462 28.77-.308 6.154 11.847-.309 1.847-1.231-1.231-6.615-.923-31.231 7.538-1.077-5.23 63.233h1.538l4.77-55.694 5.847 50.309 1.385-.769-6.464-57.541zm-25.95 35.847l.974 4.103h-1.231l.257-4.103zm-11.282 4.923l.462-4.153.922 3.385-1.384.768zm10.77-6.307l-.308 5.538-8.462.154-1.385-5.078-1.077-27.384v-1.846l9.077-1.693s0 1.231.77 2.001l1.385 28.308zm17.948.051l.77 4.769h-1.18l.41-4.769zm-11.897 5.487l.41-4.564.616 4.001-1.026.563zm11.282-6.769l-.513 6.051-8.974-.051-1.078-4.923-.692-28.771c.385-.769.539-2.539.539-2.539l9.153-1.231c-.229.924.539 2.309.539 2.309l1.026 29.155z"/></svg>

<?xml version="1.0" encoding="utf-8"?>
<!-- Generator: Adobe Illustrator 15.0.2, SVG Export Plug-In . SVG Version: 6.00 Build 0)  -->
<!DOCTYPE svg PUBLIC "-//W3C//DTD SVG 1.1//EN" "http://www.w3.org/Graphics/SVG/1.1/DTD/svg11.dtd">
<svg version="1.1" id="Ebene_1" xmlns="http://www.w3.org/2000/svg" xmlns:xlink="http://www.w3.org/1999/xlink" x="0px" y="0px"
	 width="100px" height="100px" viewBox="0 0 100 100" enable-background="new 0 0 100 100" xml:space="preserve">
<circle fill="#B2B2B2" cx="50" cy="50" r="50"/>
<path d="M74.924,18.153c0.615-1.539-0.308-2-0.308-2l-45.848,7.231c-1.23,0.769-0.307,1.692-0.307,1.692l-9.847,54.463l1.846,0.154
	l8.77-50.771l8.154,45.848l1.539-0.155L30,24.768l6-1.077c-0.154,0.616,0.615,2.462,0.615,2.462l1.231,27.693l-0.615,6l11.385-0.309
	l1.692-1.076l-0.923-5.386L47.539,22l5.692-0.615c-0.308,0.769,0.615,2.769,0.615,2.769l0.462,28.77L54,59.078l11.847-0.309
	l1.847-1.231l-1.231-6.615l-0.923-31.231l7.538-1.077l-5.23,63.233h1.538l4.77-55.694l5.847,50.309l1.385-0.769L74.924,18.153z
	 M48.974,54l0.974,4.103h-1.231L48.974,54z M37.692,58.923l0.462-4.153l0.922,3.385L37.692,58.923z M48.462,52.616l-0.308,5.538
	l-8.462,0.154l-1.385-5.078L37.23,25.846c0,0,0-0.154,0-1.846l9.077-1.693c0,0,0,1.231,0.77,2.001L48.462,52.616z M66.41,52.667
	l0.77,4.769H66L66.41,52.667z M54.513,58.154l0.41-4.564l0.616,4.001L54.513,58.154z M65.795,51.385l-0.513,6.051l-8.974-0.051
	l-1.078-4.923l-0.692-28.771c0.385-0.769,0.539-2.539,0.539-2.539l9.153-1.231c-0.229,0.924,0.539,2.309,0.539,2.309L65.795,51.385z
	"/>
</svg>
